X: 1
T: Bighellonaire (valse 5T)
C: Eric Thez\'e
Z: 2019 John Chambers <jc:trillian.mit.edu>
S: NEFFA 2019 French Jam handout p.11 #2
P: 5 = 3 + 2
M: 3/4
L: 1/4
K: Am
"^A"|:\
"Dm"F2A cF | "Am"E2A cE | "Bb"F2F GA | "C"G2[EC] [FD][GE] |\
"Dm"F2A cF | "Am"E2A cE | "Bb"[F2D2]F GA | "C"[GE][EC][EC] [FD][GE] |
"F"A2c AF | "C"G2E FG | "Dm"F2D- DA |"C"G2E FG |\
"Am"A2c AE | "Bb"F2D EF | "C"E2C DE | "Dm"D2D EF |
"Am"A2c AE | "Bb"F2D EF | "C"E2C DE | "Dm"D2D FA |\
"Am"A2c Ac | "Bb"d2d cA | "C"G2E FG | C2C DE :|["Fin" "Dm"D3- D2 |] 
